!!!COM: Felix Mendelssohn
!!!CNT: Deutsch
!!!TXO: Deutsch
!!!OTL: Warnung vor dem Rhein
!!!LYR: Karl Simrock
!!!ENC: Daniel Alt & Leigh VanHandel
!!!YOR: Sa2mmtliche Lieder fu2r eine Singstimme 
!!!YOR: Neu revidirt von Dr. L. Benda, Ausgabe fu2r mittlere Stimme
!!!YOR: Braunschweig. Henry Litolff's Verlag. Boston and New York: Arthur P. Schmidt.
!!!ODT: 1840/
**kern
*staff1
=1-
*clefG2
*k[f#]
*M2/4
4r
8r
{16g
16a
=2
8g
16.f#
32e
8d
8b
=3
8b
16.a
32g
8f#
8dd
=4
8dd
16cc
16cc
8cc
16b
16a
=5
4b}
8r
{16g
16a
=6
8b
16g
16a
8f#
16g
16a
=7
8b
16g
16a
8f#
16g
16a
=8
8b
16g
16a
16b
16a#
16b
16cc#
=9
4.dd}
{8b
=10
8f#
16d
16e
8f#
16f#
16f#
=11
4B}
8r
{16dd
16dd
=12
8dd
16cc
16cc
8cc
16b
16a
=13
8g
16.f#
32e
8d
8dd
=14
8dd}
16r
{16cc
8cc
16b
16a
=15
[2g
=16
8g]}
8r
4r
==
*-